data/styles/clear/style-night/symbols/car-repair-m.svg

<?xml version="1.0" encoding="UTF-8" standalone="no"?>
<svg
   xmlns:svg="http://www.w3.org/2000/svg"
   xmlns="http://www.w3.org/2000/svg"
   xmlns:sodipodi="http://sodipodi.sourceforge.net/DTD/sodipodi-0.dtd"
   xmlns:inkscape="http://www.inkscape.org/namespaces/inkscape"
   inkscape:version="1.1-dev (1:0.92.0+devel+202005110039+9ce7266)"
   sodipodi:docname="car-repair-m.svg"
   id="svg3173"
   version="1.1"
   viewBox="0 0 24 24"
   height="24"
   width="24">
  <defs
     id="defs3177" />
  <title
     id="title3163">car-repair-m</title>
  <g
     transform="scale(1.5)"
     opacity="0.6"
     fill-rule="evenodd"
     fill="none"
     stroke-width="1"
     stroke="none"
     id="Page-2:-Night">
    <g
       fill-rule="nonzero"
       id="car-repair-m">
      <circle
         r="8"
         cy="8"
         cx="8"
         fill="#ffffff"
         id="Oval" />
      <circle
         r="7.3333335"
         cy="8"
         cx="8"
         fill="#717065"
         id="circle3166" />
      <g
         fill="#ffffff"
         transform="translate(4,3.333333)"
         id="Group">
        <path
           id="Shape"
           d="m 1.4736842,5.8947368 v -0.491228 h 4.9122807 v 0.491228 c 0,0.2701755 0.2210526,0.4912281 0.4912281,0.4912281 v 0 c 0.2701754,0 0.491228,-0.2210526 0.491228,-0.4912281 V 2.7950877 c 0,0 -0.6582456,-1.9796491 -0.7663157,-2.30385963 -0.024561,-0.0785965 -0.058947,-0.14245614 -0.093333,-0.19649123 -0.00982,-0.009825 -0.014737,-0.0196491 -0.024561,-0.034386 C 6.2975439,0.00491228 6.0322807,0 6.0322807,0 H 1.8273684 c 0,0 -0.2652631,0.00491228 -0.4519298,0.26526316 -0.00982,0.009825 -0.014737,0.0196491 -0.024561,0.0294737 C 1.3164916,0.34877196 1.2821056,0.4126316 1.2575446,0.49122809 1.1494737,0.8154386 0.49122807,2.7950877 0.49122807,2.7950877 v 3.0996491 c 0,0.2701755 0.22105263,0.4912281 0.49122807,0.4912281 v 0 c 0.27017546,0 0.49122806,-0.2210526 0.49122806,-0.4912281 z M 2.4561404,4.1754386 c -0.2701755,0 -0.4912281,-0.2210526 -0.4912281,-0.4912281 0,-0.2701754 0.2210526,-0.491228 0.4912281,-0.491228 0.2701754,0 0.491228,0.2210526 0.491228,0.491228 0,0.2701755 -0.2210526,0.4912281 -0.491228,0.4912281 z m 2.9473684,0 c -0.2701755,0 -0.4912281,-0.2210526 -0.4912281,-0.4912281 0,-0.2701754 0.2210526,-0.491228 0.4912281,-0.491228 0.2701754,0 0.491228,0.2210526 0.491228,0.491228 0,0.2701755 -0.2210526,0.4912281 -0.491228,0.4912281 z M 2.1270175,0.98245614 H 5.7326316 L 5.845614,1.3214035 6.0568421,1.9649123 H 1.802807 Z" />
        <path
           id="Path"
           d="m 0,7.3733333 v 0 C 0,7.6385965 0.22105263,7.8596491 0.48631579,7.8596491 H 3.4385965 v 0.9873684 c 0,0.2701755 0.2210526,0.4863158 0.4863158,0.4863158 h 0.00491 c 0.2701777,0 0.486318,-0.2210526 0.486318,-0.4863158 V 7.8596491 H 7.368421 c 0.2701755,0 0.4863158,-0.2210526 0.4863158,-0.4863158 v 0 c 0,-0.2701754 -0.2210526,-0.4863158 -0.4863158,-0.4863158 H 0.48631579 C 0.22105263,6.8821053 0,7.1031579 0,7.3733333 Z" />
      </g>
    </g>
  </g>
</svg>

<?xml version="1.0" encoding="UTF-8"?>
<svg width="16px" height="16px" viewBox="0 0 16 16" version="1.1" xmlns="http://www.w3.org/2000/svg" xmlns:xlink="http://www.w3.org/1999/xlink">
    <title>car-repair-m</title>
    <g id="Page-2:-Night" stroke="none" stroke-width="1" fill="none" fill-rule="evenodd" opacity="0.6">
        <g id="car-repair-m" fill-rule="nonzero">
            <circle id="Oval" fill="#FFFFFF" cx="8" cy="8" r="8"></circle>
            <circle id="Oval" fill="#717065" cx="8" cy="8" r="7.33333333"></circle>
            <g id="Group" transform="translate(4.000000, 3.333333)" fill="#FFFFFF">
                <path d="M1.47368421,5.89473684 L1.47368421,5.40350877 L6.38596491,5.40350877 L6.38596491,5.89473684 C6.38596491,6.16491228 6.60701754,6.38596491 6.87719298,6.38596491 L6.87719298,6.38596491 C7.14736842,6.38596491 7.36842105,6.16491228 7.36842105,5.89473684 L7.36842105,2.79508772 C7.36842105,2.79508772 6.71017544,0.815438596 6.60210526,0.49122807 C6.57754386,0.412631579 6.54315789,0.34877193 6.50877193,0.294736842 C6.49894737,0.284912281 6.49403509,0.275087719 6.48421053,0.260350877 C6.29754386,0.0049122807 6.0322807,0 6.0322807,0 L1.82736842,0 C1.82736842,0 1.56210526,0.0049122807 1.3754386,0.265263158 C1.36561404,0.275087719 1.36070175,0.284912281 1.35087719,0.294736842 C1.31649123,0.34877193 1.28210526,0.412631579 1.25754386,0.49122807 C1.14947368,0.815438596 0.49122807,2.79508772 0.49122807,2.79508772 L0.49122807,5.89473684 C0.49122807,6.16491228 0.712280702,6.38596491 0.98245614,6.38596491 L0.98245614,6.38596491 C1.25263158,6.38596491 1.47368421,6.16491228 1.47368421,5.89473684 Z M2.45614035,4.1754386 C2.18596491,4.1754386 1.96491228,3.95438596 1.96491228,3.68421053 C1.96491228,3.41403509 2.18596491,3.19298246 2.45614035,3.19298246 C2.72631579,3.19298246 2.94736842,3.41403509 2.94736842,3.68421053 C2.94736842,3.95438596 2.72631579,4.1754386 2.45614035,4.1754386 Z M5.40350877,4.1754386 C5.13333333,4.1754386 4.9122807,3.95438596 4.9122807,3.68421053 C4.9122807,3.41403509 5.13333333,3.19298246 5.40350877,3.19298246 C5.67368421,3.19298246 5.89473684,3.41403509 5.89473684,3.68421053 C5.89473684,3.95438596 5.67368421,4.1754386 5.40350877,4.1754386 Z M2.12701754,0.98245614 L5.73263158,0.98245614 L5.84561404,1.32140351 L6.05684211,1.96491228 L1.80280702,1.96491228 L2.12701754,0.98245614 Z" id="Shape"></path>
                <path d="M0,7.37333333 L0,7.37333333 C0,7.63859649 0.221052632,7.85964912 0.486315789,7.85964912 L3.43859649,7.85964912 L3.43859649,8.84701754 C3.43859649,9.11719298 3.65964912,9.33333333 3.92491228,9.33333333 L3.92982456,9.33333333 C4.2,9.33333333 4.41614035,9.1122807 4.41614035,8.84701754 L4.41614035,7.85964912 L7.36842105,7.85964912 C7.63859649,7.85964912 7.85473684,7.63859649 7.85473684,7.37333333 L7.85473684,7.37333333 C7.85473684,7.10315789 7.63368421,6.88701754 7.36842105,6.88701754 L0.486315789,6.88701754 C0.221052632,6.88210526 0,7.10315789 0,7.37333333 Z" id="Path"></path>
            </g>
        </g>
    </g>
</svg>
